X:1
T: Emon Acnuck
C:
R:Jig
Q:180
K:Am
M:6/8
L:1/16
|:B2|c2A2d2 c2A2G2|E2G2E2 G2A2B2|c2A2d2 c2A2G2|E2A2A2 A4B2|
c2A2d2 c2A2G2|E2G2E2 G2A2B2|c2A2d2 c2A2G2|E2A2A2 A4:|
|:e^f|g2a2g2 g2e2d2|c2A2A2 c2d2e2|e2a2a2 a2g2e2|e2d2d2 d4e^f|
g2a2g2 g2e2d2|c2A2A2 c2d2e2|e2e2d2 c2A2G2|E2A2A2 A4:|
